Assets/Icons/interaction/play-circle.svg

<svg enable-background="new 0 0 60 60" viewBox="0 0 60 60" xmlns="http://www.w3.org/2000/svg"><path d="m45.03 28.26-21.57-12.19c-1.33-.75-2.98.21-2.98 1.74v24.38c0 1.53 1.65 2.49 2.98 1.74l21.57-12.19c1.35-.76 1.35-2.72 0-3.48zm-21.5 12.12v-20.76l18.36 10.38z"/><path d="m30 1.5c-15.71 0-28.5 12.79-28.5 28.5s12.79 28.5 28.5 28.5 28.5-12.79 28.5-28.5-12.79-28.5-28.5-28.5zm0 54c-14.06 0-25.5-11.44-25.5-25.5s11.44-25.5 25.5-25.5 25.5 11.44 25.5 25.5-11.44 25.5-25.5 25.5z"/></svg>

<?xml version="1.0" encoding="utf-8"?>
<!-- Generator: Adobe Illustrator 21.1.0, SVG Export Plug-In . SVG Version: 6.00 Build 0)  -->
<svg version="1.1" id="eps" xmlns="http://www.w3.org/2000/svg" xmlns:xlink="http://www.w3.org/1999/xlink" x="0px" y="0px"
	 viewBox="0 0 60 60" style="enable-background:new 0 0 60 60;" xml:space="preserve">
<g>
	<path d="M45.03,28.26L23.46,16.07c-1.33-0.75-2.98,0.21-2.98,1.74v24.38c0,1.53,1.65,2.49,2.98,1.74l21.57-12.19
		C46.38,30.98,46.38,29.02,45.03,28.26z M23.53,40.38V19.62L41.89,30L23.53,40.38z"/>
	<path d="M30,1.5C14.29,1.5,1.5,14.29,1.5,30S14.29,58.5,30,58.5S58.5,45.71,58.5,30S45.71,1.5,30,1.5z M30,55.5
		C15.94,55.5,4.5,44.06,4.5,30S15.94,4.5,30,4.5S55.5,15.94,55.5,30S44.06,55.5,30,55.5z"/>
</g>
</svg>
